images-src/rabbit_lowering_left_end_06.svg

<?xml version="1.0" encoding="UTF-8" standalone="no"?>
<!-- Created with Inkscape (http://www.inkscape.org/) -->

<svg
   xmlns:dc="http://purl.org/dc/elements/1.1/"
   xmlns:cc="http://creativecommons.org/ns#"
   xmlns:rdf="http://www.w3.org/1999/02/22-rdf-syntax-ns#"
   xmlns:svg="http://www.w3.org/2000/svg"
   xmlns="http://www.w3.org/2000/svg"
   xmlns:sodipodi="http://sodipodi.sourceforge.net/DTD/sodipodi-0.dtd"
   xmlns:inkscape="http://www.inkscape.org/namespaces/inkscape"
   width="64"
   height="96"
   id="svg2"
   version="1.1"
   inkscape:version="0.48.4 r9939"
   sodipodi:docname="rabbit-lowering-left-end-06.svg">
  <defs
     id="defs4" />
  <sodipodi:namedview
     id="base"
     pagecolor="#ffffff"
     bordercolor="#666666"
     borderopacity="1.0"
     inkscape:pageopacity="0.0"
     inkscape:pageshadow="2"
     inkscape:zoom="5.2916667"
     inkscape:cx="26.483424"
     inkscape:cy="48"
     inkscape:document-units="px"
     inkscape:current-layer="layer1"
     showgrid="false"
     inkscape:window-width="1024"
     inkscape:window-height="717"
     inkscape:window-x="0"
     inkscape:window-y="26"
     inkscape:window-maximized="1" />
  <metadata
     id="metadata7">
    <rdf:RDF>
      <cc:Work
         rdf:about="">
        <dc:format>image/svg+xml</dc:format>
        <dc:type
           rdf:resource="http://purl.org/dc/dcmitype/StillImage" />
        <dc:title />
      </cc:Work>
    </rdf:RDF>
  </metadata>
  <g
     inkscape:label="Layer 1"
     inkscape:groupmode="layer"
     id="layer1"
     transform="translate(0,-956.3622)">
    <path
       sodipodi:type="arc"
       style="fill:#ffffff;fill-opacity:1;stroke:#000000;stroke-opacity:1"
       id="path3772-7"
       sodipodi:cx="10.204445"
       sodipodi:cy="7.6088891"
       sodipodi:rx="3.3777778"
       sodipodi:ry="1.6355555"
       d="m 13.582223,7.6088891 c 0,0.9032924 -1.512283,1.6355555 -3.377778,1.6355555 -1.8654953,0 -3.3777779,-0.7322631 -3.3777779,-1.6355555 0,-0.9032924 1.5122826,-1.6355555 3.3777779,-1.6355555 1.865495,0 3.377778,0.7322631 3.377778,1.6355555 z"
       transform="matrix(-0.30604542,0.84085292,0.84085292,0.30604542,8.9768039,982.34908)" />
    <path
       transform="matrix(-1,0,0,1,57.512596,975.17558)"
       sodipodi:type="arc"
       style="fill:#ffffff;fill-opacity:1;stroke:#000000;stroke-opacity:1"
       id="path3766-3"
       sodipodi:cx="17.528889"
       sodipodi:cy="29.475555"
       sodipodi:rx="3.3777778"
       sodipodi:ry="1.1733333"
       d="m 20.906667,29.475555 c 0,0.648015 -1.512283,1.173334 -3.377778,1.173334 -1.865495,0 -3.377778,-0.525319 -3.377778,-1.173334 0,-0.648014 1.512283,-1.173333 3.377778,-1.173333 1.865495,0 3.377778,0.525319 3.377778,1.173333 z" />
    <path
       sodipodi:type="arc"
       style="fill:#ffffff;fill-opacity:1;stroke:#000000;stroke-opacity:1"
       id="path3766"
       sodipodi:cx="17.528889"
       sodipodi:cy="29.475555"
       sodipodi:rx="3.3777778"
       sodipodi:ry="1.1733333"
       d="m 20.906667,29.475555 c 0,0.648015 -1.512283,1.173334 -3.377778,1.173334 -1.865495,0 -3.377778,-0.525319 -3.377778,-1.173334 0,-0.648014 1.512283,-1.173333 3.377778,-1.173333 1.865495,0 3.377778,0.525319 3.377778,1.173333 z"
       transform="matrix(-0.90630779,0.42261827,0.42261827,0.90630779,44.808621,972.44908)" />
    <path
       sodipodi:type="arc"
       style="fill:#ffffff;fill-opacity:1;stroke:#000000;stroke-opacity:1"
       id="path3768"
       sodipodi:cx="13.262222"
       sodipodi:cy="21.297777"
       sodipodi:rx="5.3688889"
       sodipodi:ry="8.6400003"
       d="m 18.631111,21.297777 c 0,4.771741 -2.403733,8.640001 -5.368889,8.640001 -2.965155,0 -5.3688886,-3.86826 -5.3688886,-8.640001 0,-4.77174 2.4037336,-8.64 5.3688886,-8.64 2.965156,0 5.368889,3.86826 5.368889,8.64 z"
       transform="matrix(-0.50860801,0.98197326,1.1760176,0.2860273,7.2596489,982.70468)" />
    <path
       sodipodi:type="arc"
       style="fill:#ffffff;fill-opacity:1;stroke:#000000;stroke-opacity:1"
       id="path3792"
       sodipodi:cx="19.768888"
       sodipodi:cy="22.151112"
       sodipodi:rx="1.4222223"
       sodipodi:ry="3.8044446"
       d="m 21.191111,22.151112 c 0,2.101136 -0.636751,3.804444 -1.422223,3.804444 -0.785471,0 -1.422222,-1.703308 -1.422222,-3.804444 0,-2.101137 0.636751,-3.804445 1.422222,-3.804445 0.785472,0 1.422223,1.703308 1.422223,3.804445 z"
       transform="matrix(-0.34202015,-0.93969262,-0.93969262,0.34202015,41.587074,1016.7251)" />
    <path
       sodipodi:type="arc"
       style="fill:#ffffff;fill-opacity:1;stroke:#000000;stroke-opacity:1"
       id="path3770"
       sodipodi:cx="16.782223"
       sodipodi:cy="9.8488894"
       sodipodi:rx="4.8355556"
       sodipodi:ry="3.9466667"
       d="m 21.617778,9.8488894 c 0,2.1796836 -2.164952,3.9466666 -4.835555,3.9466666 -2.670604,0 -4.835556,-1.766983 -4.835556,-3.9466666 0,-2.1796839 2.164952,-3.9466668 4.835556,-3.9466668 2.670603,0 4.835555,1.7669829 4.835555,3.9466668 z"
       transform="matrix(-0.92229131,0.33568659,0.32501633,0.89297501,23.239722,985.64728)" />
    <path
       sodipodi:type="arc"
       style="fill:#4d4d4b;fill-opacity:1;stroke:#000000;stroke-opacity:1"
       id="path3772"
       sodipodi:cx="10.204445"
       sodipodi:cy="7.6088891"
       sodipodi:rx="3.3777778"
       sodipodi:ry="1.6355555"
       d="m 13.582223,7.6088891 c 0,0.9032924 -1.512283,1.6355555 -3.377778,1.6355555 -1.8654953,0 -3.3777779,-0.7322631 -3.3777779,-1.6355555 0,-0.9032924 1.5122826,-1.6355555 3.3777779,-1.6355555 1.865495,0 3.377778,0.7322631 3.377778,1.6355555 z"
       transform="matrix(-0.34202013,0.93969262,0.93969262,0.34202013,10.547612,981.71588)" />
    <path
       sodipodi:type="arc"
       style="fill:#ffffff;fill-opacity:1;stroke:#000000;stroke-opacity:1"
       id="path3794"
       sodipodi:cx="20.088888"
       sodipodi:cy="9.7066669"
       sodipodi:rx="0.39111111"
       sodipodi:ry="0.39111111"
       d="m 20.479999,9.7066669 c 0,0.2160047 -0.175106,0.3911111 -0.391111,0.3911111 -0.216005,0 -0.391111,-0.1751064 -0.391111,-0.3911111 0,-0.2160047 0.175106,-0.3911111 0.391111,-0.3911111 0.216005,0 0.391111,0.1751064 0.391111,0.3911111 z"
       transform="matrix(-0.98480776,0.17364818,0.17364818,0.98480776,27.709764,986.32758)" />
    <path
       sodipodi:type="arc"
       style="fill:#ffffff;fill-opacity:1;stroke:#000000;stroke-opacity:1"
       id="path3796"
       sodipodi:cx="13.795555"
       sodipodi:cy="27.946667"
       sodipodi:rx="3.6977777"
       sodipodi:ry="2.2755556"
       d="m 17.493333,27.946667 c 0,1.256754 -1.655552,2.275555 -3.697778,2.275555 -2.042226,0 -3.697778,-1.018801 -3.697778,-2.275555 0,-1.256755 1.655552,-2.275556 3.697778,-2.275556 2.042226,0 3.697778,1.018801 3.697778,2.275556 z"
       transform="matrix(-1.3928819,0.18738731,0.21941034,0.94939162,50.499576,975.76928)" />
  </g>
</svg>

<?xml version="1.0" encoding="UTF-8" standalone="no"?>
<!-- Created with Inkscape (http://www.inkscape.org/) -->

<svg
   xmlns:dc="http://purl.org/dc/elements/1.1/"
   xmlns:cc="http://creativecommons.org/ns#"
   xmlns:rdf="http://www.w3.org/1999/02/22-rdf-syntax-ns#"
   xmlns:svg="http://www.w3.org/2000/svg"
   xmlns="http://www.w3.org/2000/svg"
   xmlns:sodipodi="http://sodipodi.sourceforge.net/DTD/sodipodi-0.dtd"
   xmlns:inkscape="http://www.inkscape.org/namespaces/inkscape"
   width="64"
   height="96"
   id="svg2"
   version="1.1"
   inkscape:version="0.91 r13725"
   sodipodi:docname="rabbit_lowering_left_end_06.svg">
  <defs
     id="defs4" />
  <sodipodi:namedview
     id="base"
     pagecolor="#ffffff"
     bordercolor="#666666"
     borderopacity="1.0"
     inkscape:pageopacity="0.0"
     inkscape:pageshadow="2"
     inkscape:zoom="42.333334"
     inkscape:cx="11.965084"
     inkscape:cy="53.23515"
     inkscape:document-units="px"
     inkscape:current-layer="layer1"
     showgrid="false"
     inkscape:window-width="1920"
     inkscape:window-height="980"
     inkscape:window-x="0"
     inkscape:window-y="0"
     inkscape:window-maximized="1" />
  <metadata
     id="metadata7">
    <rdf:RDF>
      <cc:Work
         rdf:about="">
        <dc:format>image/svg+xml</dc:format>
        <dc:type
           rdf:resource="http://purl.org/dc/dcmitype/StillImage" />
        <dc:title />
      </cc:Work>
    </rdf:RDF>
  </metadata>
  <g
     inkscape:label="Layer 1"
     inkscape:groupmode="layer"
     id="layer1"
     transform="translate(0,-956.3622)">
    <ellipse
       style="fill:#ffffff;fill-opacity:1;stroke:#000000;stroke-width:0.89481699;stroke-opacity:1"
       id="path3772-7"
       transform="matrix(-0.88887535,0.45814912,0.45814912,0.88887535,0,0)"
       cx="442.03296"
       cy="891.23157"
       rx="3.0224929"
       ry="1.4635228" />
    <path
       transform="matrix(-1,0,0,1,57.512596,975.17558)"
       sodipodi:type="arc"
       style="fill:#ffffff;fill-opacity:1;stroke:#000000;stroke-opacity:1"
       id="path3766-3"
       sodipodi:cx="17.528889"
       sodipodi:cy="29.475555"
       sodipodi:rx="3.3777778"
       sodipodi:ry="1.1733333"
       d="m 20.906667,29.475555 a 3.3777778,1.1733333 0 0 1 -3.377778,1.173334 3.3777778,1.1733333 0 0 1 -3.377778,-1.173334 3.3777778,1.1733333 0 0 1 3.377778,-1.173333 3.3777778,1.1733333 0 0 1 3.377778,1.173333 z" />
    <path
       sodipodi:type="arc"
       style="fill:#ffffff;fill-opacity:1;stroke:#000000;stroke-opacity:1"
       id="path3766"
       sodipodi:cx="17.528889"
       sodipodi:cy="29.475555"
       sodipodi:rx="3.3777778"
       sodipodi:ry="1.1733333"
       d="m 20.906667,29.475555 a 3.3777778,1.1733333 0 0 1 -3.377778,1.173334 3.3777778,1.1733333 0 0 1 -3.377778,-1.173334 3.3777778,1.1733333 0 0 1 3.377778,-1.173333 3.3777778,1.1733333 0 0 1 3.377778,1.173333 z"
       transform="matrix(-0.90630779,0.42261827,0.42261827,0.90630779,44.808621,972.44908)" />
    <path
       sodipodi:type="arc"
       style="fill:#ffffff;fill-opacity:1;stroke:#000000;stroke-opacity:1"
       id="path3768"
       sodipodi:cx="13.262222"
       sodipodi:cy="21.297777"
       sodipodi:rx="5.3688889"
       sodipodi:ry="8.6400003"
       d="m 18.631111,21.297777 a 5.3688889,8.6400003 0 0 1 -5.368889,8.640001 5.3688889,8.6400003 0 0 1 -5.3688886,-8.640001 5.3688889,8.6400003 0 0 1 5.3688886,-8.64 5.3688889,8.6400003 0 0 1 5.368889,8.64 z"
       transform="matrix(-0.50860801,0.98197326,1.1760176,0.2860273,7.2596489,982.70468)" />
    <path
       sodipodi:type="arc"
       style="fill:#ffffff;fill-opacity:1;stroke:#000000;stroke-opacity:1"
       id="path3792"
       sodipodi:cx="19.768888"
       sodipodi:cy="22.151112"
       sodipodi:rx="1.4222223"
       sodipodi:ry="3.8044446"
       d="m 21.191111,22.151112 a 1.4222223,3.8044446 0 0 1 -1.422223,3.804444 1.4222223,3.8044446 0 0 1 -1.422222,-3.804444 1.4222223,3.8044446 0 0 1 1.422222,-3.804445 1.4222223,3.8044446 0 0 1 1.422223,3.804445 z"
       transform="matrix(-0.34202015,-0.93969262,-0.93969262,0.34202015,41.587074,1016.7251)" />
    <path
       sodipodi:type="arc"
       style="fill:#ffffff;fill-opacity:1;stroke:#000000;stroke-opacity:1"
       id="path3770"
       sodipodi:cx="16.782223"
       sodipodi:cy="9.8488894"
       sodipodi:rx="4.8355556"
       sodipodi:ry="3.9466667"
       d="M 21.617778,9.8488894 A 4.8355556,3.9466667 0 0 1 16.782223,13.795556 4.8355556,3.9466667 0 0 1 11.946667,9.8488894 4.8355556,3.9466667 0 0 1 16.782223,5.9022226 4.8355556,3.9466667 0 0 1 21.617778,9.8488894 Z"
       transform="matrix(-0.92229131,0.33568659,0.32501633,0.89297501,23.239722,985.64728)" />
    <ellipse
       style="fill:#4d4d4b;fill-opacity:1;stroke:#000000;stroke-opacity:1"
       id="path3772"
       transform="matrix(-0.98480775,0.17364819,0.17364819,0.98480775,0,0)"
       cx="156.98012"
       cy="983.96967"
       rx="3.3777778"
       ry="1.6355555" />
    <path
       sodipodi:type="arc"
       style="fill:#ffffff;fill-opacity:1;stroke:#000000;stroke-opacity:1"
       id="path3794"
       sodipodi:cx="20.088888"
       sodipodi:cy="9.7066669"
       sodipodi:rx="0.39111111"
       sodipodi:ry="0.39111111"
       d="M 20.479999,9.7066669 A 0.39111111,0.39111111 0 0 1 20.088888,10.097778 0.39111111,0.39111111 0 0 1 19.697777,9.7066669 0.39111111,0.39111111 0 0 1 20.088888,9.3155558 0.39111111,0.39111111 0 0 1 20.479999,9.7066669 Z"
       transform="matrix(-0.98480776,0.17364818,0.17364818,0.98480776,27.709764,986.32758)" />
    <path
       sodipodi:type="arc"
       style="fill:#ffffff;fill-opacity:1;stroke:#000000;stroke-opacity:1"
       id="path3796"
       sodipodi:cx="13.795555"
       sodipodi:cy="27.946667"
       sodipodi:rx="3.6977777"
       sodipodi:ry="2.2755556"
       d="m 17.493333,27.946667 a 3.6977777,2.2755556 0 0 1 -3.697778,2.275555 3.6977777,2.2755556 0 0 1 -3.697778,-2.275555 3.6977777,2.2755556 0 0 1 3.697778,-2.275556 3.6977777,2.2755556 0 0 1 3.697778,2.275556 z"
       transform="matrix(-1.3928819,0.18738731,0.21941034,0.94939162,50.499576,975.76928)" />
  </g>
</svg>
